#define bc16cd3c3cab46818ecefb3982a0f90egr4unkOPkA01JIZl_width 48
#define bc16cd3c3cab46818ecefb3982a0f90egr4unkOPkA01JIZl_height 43
static char bc16cd3c3cab46818ecefb3982a0f90egr4unkOPkA01JIZl_bits[] = {
  0xFF, 0xFF, 0xFF, 0xFF, 0xFF, 0xFF, 0xFF, 0xFF, 0xFF, 0xFF, 0xFF, 0xFF, 
  0x03, 0x00, 0x00, 0x00, 0x00, 0xC0, 0x03, 0x00, 0x00, 0x00, 0x00, 0xC0, 
  0x03, 0x00, 0x00, 0x00, 0x00, 0xC0, 0x03, 0x00, 0x00, 0x00, 0x00, 0xC0, 
  0x03, 0x00, 0x00, 0x00, 0x00, 0xC0, 0x03, 0x00, 0x00, 0x00, 0x00, 0xC0, 
  0x03, 0x00, 0x00, 0x00, 0x00, 0xC0, 0x03, 0x00, 0x00, 0x00, 0x00, 0xC0, 
  0x03, 0x00, 0x00, 0x00, 0x00, 0xC0, 0x03, 0x00, 0x00, 0x00, 0x00, 0xC0, 
  0x03, 0x00, 0xF0, 0x0F, 0x00, 0xC0, 0x03, 0x00, 0xFC, 0x3F, 0x00, 0xC0, 
  0x03, 0x00, 0x1F, 0xF8, 0x00, 0xC0, 0x03, 0x80, 0x07, 0xE0, 0x01, 0xC0, 
  0x03, 0xC0, 0x01, 0x80, 0x03, 0xC0, 0x03, 0xC0, 0x00, 0x00, 0x03, 0xC0, 
  0x03, 0xE0, 0x00, 0x00, 0x07, 0xC0, 0x03, 0x60, 0x00, 0x00, 0x06, 0xC0, 
  0x03, 0x60, 0xF0, 0x1F, 0x06, 0xC0, 0x03, 0x60, 0x40, 0x02, 0x06, 0xC0, 
  0x03, 0x60, 0x40, 0x02, 0x06, 0xC0, 0x03, 0x60, 0x40, 0x02, 0x06, 0xC0, 
  0x03, 0x60, 0x40, 0x00, 0x06, 0xC0, 0x03, 0x60, 0x40, 0x00, 0x06, 0xC0, 
  0x03, 0xE0, 0x40, 0x00, 0x07, 0xC0, 0x03, 0xC0, 0x00, 0x00, 0x03, 0xC0, 
  0x03, 0xC0, 0x01, 0x80, 0x03, 0xC0, 0x03, 0x80, 0x07, 0xE0, 0x01, 0xC0, 
  0x03, 0x00, 0x1F, 0xF8, 0x00, 0xC0, 0x03, 0x00, 0xFC, 0x3F, 0x00, 0xC0, 
  0x03, 0x00, 0xF0, 0x0F, 0x00, 0xC0, 0x03, 0x00, 0x00, 0x00, 0x00, 0xC0, 
  0x03, 0x00, 0xF0, 0x0F, 0x00, 0xC0, 0x03, 0x00, 0xF0, 0x0F, 0x00, 0xC0, 
  0x03, 0x00, 0x00, 0x00, 0x00, 0xC0, 0x03, 0x00, 0xF0, 0x0F, 0x00, 0xC0, 
  0x03, 0x00, 0xF0, 0x0F, 0x00, 0xC0, 0x03, 0x00, 0x00, 0x00, 0x00, 0xC0, 
  0x03, 0x00, 0x00, 0x00, 0x00, 0xC0, 0xFF, 0xFF, 0xFF, 0xFF, 0xFF, 0xFF, 
  0xFF, 0xFF, 0xFF, 0xFF, 0xFF, 0xFF, };
