#define cbee78f364f048c6ec1c561de968a437NQlfhOQuYLNcV7IJ_width 48
#define cbee78f364f048c6ec1c561de968a437NQlfhOQuYLNcV7IJ_height 43
static char cbee78f364f048c6ec1c561de968a437NQlfhOQuYLNcV7IJ_bits[] = {
  0xFF, 0xFF, 0xFF, 0xFF, 0xFF, 0xFF, 0xFF, 0xFF, 0xFF, 0xFF, 0xFF, 0xFF, 
  0x03, 0x00, 0x00, 0x00, 0x00, 0xC0, 0x03, 0x00, 0x00, 0x00, 0x00, 0xC0, 
  0x03, 0x00, 0x80, 0x01, 0x00, 0xC0, 0x03, 0x00, 0x80, 0x01, 0x00, 0xC0, 
  0x03, 0x00, 0x80, 0x01, 0x00, 0xC0, 0x03, 0x03, 0x80, 0x01, 0xC0, 0xC0, 
  0x03, 0x07, 0x80, 0x01, 0xE0, 0xC0, 0x03, 0x0E, 0x80, 0x01, 0x70, 0xC0, 
  0x03, 0x1C, 0x80, 0x01, 0x38, 0xC0, 0x03, 0x38, 0x00, 0x00, 0x1C, 0xC0, 
  0x03, 0x70, 0xF0, 0x0F, 0x0E, 0xC0, 0x03, 0x60, 0xFC, 0x3F, 0x06, 0xC0, 
  0x03, 0x00, 0x1F, 0xF8, 0x00, 0xC0, 0x03, 0x80, 0x07, 0xE0, 0x01, 0xC0, 
  0x03, 0xC0, 0x01, 0x80, 0x03, 0xC0, 0x03, 0xC0, 0x00, 0x00, 0x03, 0xC0, 
  0x03, 0xE0, 0x00, 0x00, 0x07, 0xC0, 0x03, 0x60, 0x00, 0x00, 0x06, 0xC0, 
  0x03, 0x60, 0xF0, 0x1F, 0x06, 0xC0, 0xF3, 0x6F, 0x40, 0x02, 0xF6, 0xCF, 
  0xF3, 0x6F, 0x40, 0x02, 0xF6, 0xCF, 0x03, 0x60, 0x40, 0x02, 0x06, 0xC0, 
  0x03, 0x60, 0x40, 0x00, 0x06, 0xC0, 0x03, 0x60, 0x40, 0x00, 0x06, 0xC0, 
  0x03, 0xE0, 0x40, 0x00, 0x07, 0xC0, 0x03, 0xC0, 0x00, 0x00, 0x03, 0xC0, 
  0x03, 0xC0, 0x01, 0x80, 0x03, 0xC0, 0x03, 0x80, 0x07, 0xE0, 0x01, 0xC0, 
  0x03, 0x00, 0x1F, 0xF8, 0x00, 0xC0, 0x03, 0x30, 0xFC, 0x3F, 0x0C, 0xC0, 
  0x03, 0x38, 0xF0, 0x0F, 0x1C, 0xC0, 0x03, 0x1C, 0x00, 0x00, 0x38, 0xC0, 
  0x03, 0x0E, 0xF0, 0x0F, 0x70, 0xC0, 0x03, 0x07, 0xF0, 0x0F, 0xE0, 0xC0, 
  0x03, 0x03, 0x00, 0x00, 0xC0, 0xC0, 0x03, 0x00, 0xF0, 0x0F, 0x00, 0xC0, 
  0x03, 0x00, 0xF0, 0x0F, 0x00, 0xC0, 0x03, 0x00, 0x00, 0x00, 0x00, 0xC0, 
  0x03, 0x00, 0x00, 0x00, 0x00, 0xC0, 0xFF, 0xFF, 0xFF, 0xFF, 0xFF, 0xFF, 
  0xFF, 0xFF, 0xFF, 0xFF, 0xFF, 0xFF, };
